X: 19778
T: Jenny's Welcome To Charlie
R: reel
M: 4/4
K: Ddorian
|D3c AGED|Ec c2 dc c2|D3c AGED|E2cE ED D2|
D3c AGED|Ec c2 d2cd|eddc AGEA|1 GEcE ED D2:|2 GEcE EDDg||
|:f3d efed|cA A2 cAGe|fedf edcd|eaag edde|
f2 df efed|cAAB c3d|eddc AGEA|GEcE EDDg:|
|:ea a2 age^f|g2ag gedg|eaag eaag|eaag eddg|
a2 ea age^f|g2 ag gedB|GA (3Bcd ecdc|1 GEcE EDDg:|2 GEcE EDDc||
|:Ad d2 defc|Ac c2 cAGc|Addc d2 cd|eaag eddc|
d2Ad dcAB|c2Gc cAGE|DEFG Addc|1 GEcE EDDc:|2 GEcE EGGE||

